svgs/gosund.svg

<svg width="192" height="192" viewBox="0 0 192 192" fill="none" xmlns="http://www.w3.org/2000/svg">
<path d="M118 115.392H136.196C150.999 115.392 163 127.393 163 142.196V142.196C163 156.999 150.999 169 136.196 169H46.3653C37.327 169 30 161.681 30 152.653V77.2556C30 73.8587 31.538 70.6441 34.1841 68.5105L87.2508 25.7204C91.5623 22.2438 97.6712 22.0839 102.159 25.3302L156.176 64.4034C159.993 67.1641 162.328 71.5237 162.509 76.2273L163 88.9766" stroke="black" stroke-width="14" stroke-linecap="round" stroke-linejoin="round"/>
</svg>

<svg xmlns="http://www.w3.org/2000/svg" width="192" height="192" fill="none" viewBox="0 0 192 192"><path stroke="#000" stroke-linecap="round" stroke-linejoin="round" stroke-width="14" d="M118 115.392h18.196c14.803 0 26.804 12.001 26.804 26.804v0C163 156.999 150.999 169 136.196 169h-89.83C37.326 169 30 161.681 30 152.653V77.256c0-3.397 1.538-6.612 4.184-8.746l53.067-42.79a12.285 12.285 0 0 1 14.908-.39l54.017 39.073a15.32 15.32 0 0 1 6.333 11.824l.491 12.75"/></svg>
